X:1
T:Title
%%score { ( 1 3 ) | 2 }
L:1/8
M:4/4
K:Bb
V:1 treble nm="Grand Piano"
V:3 treble 
V:2 bass 
V:1
 z4 z2[Q:1/4=100] [DF]>[DF] | [DB]2 [DF]2 G2 A2 | [DB]2 [DB]4 [DB]>[FB] | [Ge]2 [Ge]2 [FB]2 c2 | %4
[M:3/4] d6 |[M:1/4] d>d |[M:4/4] c2 c2 d2 c2 | B2 B4 B>B | z4 z2 [=EB]2 |[M:3/4] c6 | %10
[M:1/4] [DF]>[DF] |[M:4/4] [DB]2 [DF]2 G2 A2 | [DB]2 [DB]4 [DB]>[DB] | [FB]2 [FB]2 [Fc]2 [Fd]2 | %14
[M:3/4] [Ge]6 |[M:1/4] [Ge]>[Ge] |[M:4/4] d2 d2 c2 [FB]2 | [Gc]2 [GB]4 G>G | F2 d2 [Ec]3 [DB] | %19
[M:3/4] [DB]6 |[M:1/4] d>d |[M:4/4] f2 d2 [FB]2 c2 | d6 d>d | d2 d2 c2 B2 |[M:3/4] c6 | %25
[M:1/4] [DF]>[DF] |[M:4/4] [FB]2 [FB]2 [Fc]2 [Fd]2 | [Ge]2 [Ge]4 G>G | F2 d2 c3 [DB] | %29
[M:3/4] [DB]6 |] %30
V:2
 z4 z2 [B,,B,]>[B,,B,] | [B,,B,]2 [B,,B,]2 [E,B,E]2 [F,E]2 | [B,,F,]2 [B,,F,]4 [B,,B,]>[D,B,] | %3
 [E,B,]2 [E,B,]2 [D,B,]2[K:treble] [F,A,F]2 |[M:3/4] [B,F]6 |[M:1/4] [B,F]>[A,B,F] | %6
[M:4/4] [F,A,F]2[K:bass] [F,A,F]2 [F,B,F]2 [F,A,E]2 | [G,B,D]2 [G,B,D]4 [G,B,D]>[G,B,D] | %8
 [C,G,]2 [C,C]2 [C,C]2 .[C,C]2 |[M:3/4] [F,A,F]6 |[M:1/4] [B,,B,]>[B,,B,] | %11
[M:4/4] [B,,B,]2 [B,,B,]2 [E,B,E]2 [F,E]2 | [B,,F,]2 [B,,F,]4 [B,,F,]>[B,,B,] | %13
 [D,B,]2 [D,B,]2 [C,A,]2 [B,,B,]2 |[M:3/4] [E,B,]6 |[M:1/4] [E,B,]>[E,B,] | %16
[M:4/4][K:treble] [B,F]2 [B,F]2[K:bass] [F,A,E]2 [D,B,]2 | [E,E]2 [E,E]4 [E,B,E]>[E,B,E] | %18
 [F,B,D]2 [F,B,F]2 [F,,F,]3 [B,,F,] |[M:3/4] [B,,F,]6 |[M:1/4][K:treble] [B,F]>[B,F] | %21
[M:4/4] [B,DF]2 [B,F]2[K:bass] [D,B,]2 [F,A,F]2 | [B,F]6 [B,F]>[A,B,F] | %23
 [B,F]2 [B,F]2 [A,CF]2[K:bass] [G,C=E]2 |[M:3/4] [F,A,F]6 |[M:1/4] [B,,B,]>[B,,B,] | %26
[M:4/4] [D,B,]2 [D,B,]2 [C,A,]2 [B,,B,]2 | [E,B,]2 [E,B,]4 [E,B,E]>[E,B,E] | %28
 [F,B,D]2 [F,B,F]2 [F,E]3 [B,,F,] |[M:3/4] [B,,F,]6 |] %30
V:3
 x8 | x8 | x8 | x8 |[M:3/4] x6 |[M:1/4] x2 |[M:4/4] x8 | x8 | [=Ec]2 [EG]2 [EA]2 z B, |[M:3/4] x6 | %10
[M:1/4] x2 |[M:4/4] x8 | x8 | x8 |[M:3/4] x6 |[M:1/4] x2 |[M:4/4] x8 | x8 | x8 |[M:3/4] x6 | %20
[M:1/4] x2 |[M:4/4] x8 | x8 | x8 |[M:3/4] x6 |[M:1/4] x2 |[M:4/4] x8 | x8 | x8 |[M:3/4] x6 |] %30

